X:1
T:Amarilli, mia bella
T:CACCINI
%%score 1 2 { ( 3 4 ) | ( 5 6 ) }
L:1/8
M:4/4
K:Bb
V:1 treble nm="Soprano" snm="S."
V:2 treble nm="Alto" snm="A."
V:3 treble nm="Piano" snm="Pno."
V:4 treble 
V:5 bass 
V:6 bass 
V:1
!p! d6 A2 | B4 ^F2 GG | A4 !breath!A2 d2 | c2 A2 !>!c3 B | !breath!A4!f! d4- | d2 cB c4 | %6
w: A- ma-|ril- li, mia *|bel- la, non|cre- di,o del mio|cor dol-|* ce de- si-|
 !breath!B4 !>!d4- | d2 c2 B4- | B2 AA A4 | G8 | z8 | z8 | z8 | z8 | B3 G A2 G^F | %15
w: o, d'es-|* ser tu|* l'a- mor mi-|o?|||||du- bi- tar non ti|
 G4{A} !breath!A4 |!f! !>!d6 cB |!>(! A4 !breath!A^FF!>)!G |!p! A2 F2 =E4 | D4 z4 | z8 | z6 AA | %22
w: va- le.|A- pri- mi`il|pet- to e ve- drai|scrit- to`in co-|re:||A- ma-|
 (=B2!<(! c4){=Bc} =B/A/B!<)! | c4 z2 ^cc |!f! !>!d4 !breath!d2 BG | A8 |{G} G8 |!mf! !>!B6 AG | %28
w: ril- * * * *|li, A- ma-|ril- li e`il mio`a-|mo-|re.|Cre- di- lo|
 A4 z ^FFG | A2 ^F2 G4 |{A} A8 | B3 G A2 G^F | G4{A} A4 |!f! !>!d6 cB | A4 !breath!A^FF!p!G | %35
w: pur: e se ti-|mor t'as- sa-|le,|du- bi- tar non ti|va- le.|A- pri- mi`il|pet- to e ve- drai|
 A2 F2 =E4 | D4 z4 | z8 | z6 AA |!<(! =B2 c4{Bc} B/A/!<)!B | c4 z2 ^cc | d4 !breath!d2 BG | A8 | %43
w: scrit- to`in co-|re:||A- ma-|ril- * * * *|li, A- ma-|ril- li e`il mio`a-|mo-|
{G} !breath!G4!ppp! d2 d2 | !>!=e4- ed/c/ =B>c | d4- d z c>=B | =B>c B>c d/B/c/A/{/c} B/A/B/G/ | %47
w: re A- ma-|ril- * * * * *|li * e`il mio`a-|mo- * * * * * * * * * * *|
 A4- A7/2 G/ | G8 |] %49
w: |re.|
V:2
!p! B4 ^F4 | G4 D2 EE | G2 ^F=E !breath!F2 F2 | =F2 F2 !>!A2 G2 | !breath!F4!f! B2 A2 | %5
w: A- ma-|ril- li, mia *|bel- * * la, non|cre- di,o del mio|cor dol- *|
 G2 BB B2 A2 | !breath!B4 z2 !>!A2 | G4 D2 EF | G2 EE D2 ^Fc | B8 |!mf! !>!B6 AG | A4 z ^FFG | %12
w: * ce de- si- *|o, d'es-|ser tu * *|* l'a- mor mi- * *|o?|Cre- di- lo|pur: e se ti-|
 A2 ^F2 G4 |{A} A8 | z8 | z8 | z2!f! !>!F2 B2 AG |!>(! G2 ^F=E !breath!FFF!>)!_E | %18
w: mor t'as- sa-|le,|||A- * pri- mi`il|pet- * * to e ve- drai|
!p! D2 D2 D2 ^C2 | D4 z2 ^FF |!<(! G6!<)! ^F/G/A | ^F4 z4 | z8 | z6 AA |!f! !>!A4 !breath!B2 BG | %25
w: scrit- to in co-|re: A- ma-|ri- * * *|li,||A- ma-|ril- li e`il mio`a-|
 G4 ^F4 |{G} G8 | z8 |!mf! G2 ^F=E !breath!FFFE | ^F2 D2 E4 | D8 | D2 D2 ^F2 FF | G4 ^F4 | %33
w: mo- *|re.||Cre- di- lo pur e se ti-|mor t'as- sa-|le,|du- bi- tar non ti|va- le|
 z2!f! !>!D2 F2 E2 | D4 !breath!DDD!p!D | D2 D2 D2 ^C2 | D4 z2!pp! ^FF | G6 ^F/G/A | ^F4 z4 | z8 | %40
w: A- pri- mi'il|pet- to e ve- drai|scrit- to`in co- *|re: A- ma-|ril- * * *|li,||
 z6 ^cB | A4 !breath!B2 GG | G4 ^F4 |{G} G4 z4 |!ppp! c2 c2 !>!c4 | =B6 z2 | G8 | G4 ^F4 | G8 |] %49
w: A- ma-|ril- li e`il mio`a-|mo- *|re|A- ma- ril-|li|a-|mo *|re.|
V:3
 G4 ^F4 | G4 ^F2 G2 | G2 ^F=E F2 [FA]2 | A2 A2 c3 B | [DFA]4!f! [DFd-]4 | d2 cB c4 | B6 [Ad-]2 | %7
 d2 c2 B4 | B2 AG G2 ^Fc | B2 G2 D2 B,2 | B6 AG | G2 ^F=E F2 FG | [^FA]2 F2 G4 | G2 ^F2 D2 [DF]2 | %14
 [B,DG]4 [A,D^F]4 | [B,DG]4 [A,D^F]4 |!f! z2 [B,D=F]2 [DFB]2 [CEA][B,EG] | G2 ^F=E F4 | %18
 F2 A2 =E3 G | [A,DF]2 [DAd]2 [D^FA]2 [A,DF]2 | [B,DG]2 [GBd]2 [DGB]2 [B,DG]2 | %21
 [A,D^F]2 [Ad^f]2 [FAd]2 [DFA]2 | [DG=B]2!<(! (([=EGc]2!<)! [DGc]2)) [DGB]2 | [=EGc]4!f! [EA^c]4 | %24
 d2 c2 B4 | A6 Ac | [DGB]2 [G,B,]2 [B,D]2 [B,DG]2 | B6 (AG | G2) ^F=E F2 (FG | [^FA]2 F2) G4 | %30
 G2 ^F2 C2 [CF]2 | [B,DG]4 [A,D^F]4 | [B,DG]4 [A,D^F]4 | z2 [B,DF]2 [DFB]2 ([CA][B,G]) | %34
 G2 ^F=E F4 | F2 A2 =E3 G | [A,DF]2 [DAd]2 [D^FA]2 [A,DF]2 | [B,DG]2 [GBd]2 [DGB]2 [B,DG]2 | %38
 [A,D^F]2 [Ad^f]2 [FAd]2 [DFA]2 | [DG=B]2 (([=EGc]2 [DGc]2)) [DGB]2 | [=EGc]4 [EA^c]4 | d2 c2 B4 | %42
 A6 Ac | [DG=B]4!ppp! [GBd]2 [GBd]2 | [Gc=e]8 | [DGd]6 [DAc]2 | [DG=B]8 | ([GA]4 [^FA]4) | %48
 [=B,DG]8 |] %49
V:4
 D8 | D4 D2 C2- | C2 C4 C2 | [C=F]4 [FA]2 [DG]2 | x8 | E8 | D2 FE D2 D2- | [DG]4 =F2 EF | %8
 G2 E2 D4- | D4 B,2 G,2 | z2 D4 C2 | C2 C4 C2 | C2 C4 C2 | C4 C2 C2 | x8 | x8 | x8 | [A,D]8 | %18
 D2 x4 ^C2 | x8 | x8 | x8 | x8 | x8 | [DA]4 [DG]4 | [DG]6 [D^F]2 | x8 | z2 D4 C2 | C2 C4 C2 | %29
 C4 C4 | C4 D2 D2 | x8 | x8 | x8 | [A,D]8 | D6 ^C2 | x8 | x8 | x8 | x8 | x8 | [DA]4 [DG]4 | %42
 [DG]6 [D^F]2 | x8 | x8 | x8 | x8 | D4 D2 C2 | x8 |] %49
V:5
!p! [G,B,]4 [D,A,]4 | [G,,D,G,]4 [D,A,]2 [E,G,]2 | [D,A,]6 [D,A,]2 | [=F,A,]6 G,2 | %4
 D,2 C,2 [B,,B,]2 A,2 | G,2 B,4 A,2 | [B,,B,]6 [^F,A,]2 | [G,B,-]4 [D,B,-]4 | %8
 [E,B,]2 [C,C]2 [D,A,]4 | [G,,G,]8 |!mf! G,4- [E,G,]4 | D,2 A,2 [D,A,]4 | [D,A,]4 [E,G,]4 | %13
 [D,A,]8 | G,,2 G,2 D,2 D,,2 | G,,2 G,2 D,2 C,2 | B,,6 C,2 | D,4!p! D,,4 | [D,A,]4 [A,,A,]4 | %19
 [D,,D,]4 D,4 |!<(! G,4!<)! G,,4 | D,,4 D,4 | G,4 G,,4 | C,2 B,,2 A,,2 G,,2 | ^F,,4 G,,2 G,2 | %25
 D,2 A,,2 D,,4 |!mf! [G,,D,]8 | G,4 [E,G,]4 | D,2 A,2 [D,A,]4 | [D,A,]4 E,2 E,,2 | [D,,A,]8 | %31
 G,,2 G,2 D,2 D,,2 | G,,2 G,2 D,2 C,2 |!f! B,,6 C,2 | D,4 D,,4 |!p! [D,A,]4 [^C,A,]4 | %36
 [D,,D,]4!pp! D,4 | G,4 G,,4 | D,,4 D,4 |!<(! G,4!<)! G,,4 | C,2 B,,2 A,,2 G,,2 | ^F,,4 G,,2 G,2 | %42
 D,2 A,,2 D,,4 | G,,2 D,2 G,4 | C,,2 G,,2 G,4 | =B,,,2 G,,2 G,2 ^F,,2 | G,,4 G,4 | %47
 [D,A,]4 [D,,D,]4 | [G,,D,]8 |] %49
V:6
 x8 | x8 | x8 | x8 | x8 | E,4 F,4 | x8 | x8 | x8 | x8 | x8 | x8 | x8 | x8 | x8 | x8 | x8 | x8 | %18
 x8 | x8 | x8 | x8 | x8 | x8 | x8 | x8 | x8 | x8 | x8 | x8 | x8 | x8 | x8 | x8 | x8 | x8 | x8 | %37
 x8 | x8 | x8 | x8 | x8 | x8 | x8 | x8 | x8 | x8 | x8 | x8 |] %49

